usr/share/icons/biglinux-icons-material/scalable/mimetypes/text-x-java.svg

<svg width="24" height="24" viewBox="0 0 24 24" fill="none" xmlns="http://www.w3.org/2000/svg">
<rect x="1" y="1" width="22" height="22" rx="6.6" fill="url(#paint0_radial_6_268)"/>
<path fill-rule="evenodd" clip-rule="evenodd" d="M13.5637 5C14.1504 7.31129 11.4943 8.0094 10.5356 9.44884C9.88285 10.4296 10.8561 11.4834 12.183 12.6805C11.6656 11.5108 9.91085 10.4875 12.1837 8.69235C15.0179 6.45514 13.5637 5 13.5637 5ZM15.3173 7.85966C15.3173 7.85966 10.5247 9.05633 12.8136 11.6938C13.4893 12.4716 12.6363 13.171 12.6363 13.171C12.6363 13.171 14.351 12.286 13.5637 11.1772C12.8281 10.1436 12.2641 9.6302 15.3173 7.85966ZM16.166 12.571C15.9976 12.5715 15.8188 12.6007 15.6354 12.6652C15.4883 12.7173 15.4111 12.8383 15.4111 12.8383C15.4111 12.8383 15.5041 12.8009 15.7114 12.7576C16.5592 12.581 17.7738 13.8925 15.1471 15.2571C15.1349 15.2896 15.0946 15.3261 15.0946 15.3261C18.2185 14.5048 17.5373 12.5683 16.166 12.571ZM10.5377 12.7041C10.332 12.6994 9.44241 12.7126 8.37936 13.2268C6.94221 13.9217 11.9336 14.2383 14.5178 13.5586C14.7864 13.3753 15.1575 13.2161 15.1575 13.2161C15.1575 13.2161 14.1006 13.4051 13.0475 13.4934C11.7585 13.6016 10.3757 13.6229 9.68161 13.5301C8.03828 13.3104 10.5825 12.706 10.5825 12.706C10.5825 12.706 10.5671 12.7047 10.5377 12.7041ZM9.99012 14.2941C7.61939 15.0809 11.3099 15.9738 14.6231 15.0047C14.2711 14.8806 14.0475 14.6535 14.0475 14.6535C12.4276 14.9652 11.4918 14.9553 10.3065 14.8329C9.39018 14.7382 9.99012 14.2941 9.99012 14.2941ZM10.3252 15.8267C8.17266 16.4281 11.6349 17.6706 14.3758 16.4962C13.9269 16.3218 13.6049 16.1204 13.6049 16.1204C12.3827 16.3514 11.8157 16.3696 10.7063 16.243C9.79063 16.1379 10.3252 15.8267 10.3252 15.8267ZM8.8301 16.8428C7.86343 16.8726 5.97292 17.7418 7.70181 18.0224C13.2895 18.9281 17.8876 17.6144 16.4383 16.9605C16.4383 16.9605 16.8342 17.2869 16.0024 17.5392C14.4207 18.0183 9.4181 18.1628 8.02858 17.5584C7.52944 17.341 8.46586 17.0396 8.7605 16.976C9.06772 16.9095 9.24317 16.9217 9.24317 16.9217C9.15637 16.8606 9.00911 16.8373 8.8301 16.8428ZM17.3255 17.6735C17.3255 17.6735 17.1493 18.1257 15.2421 18.4845C13.0902 18.8896 10.4357 18.8424 8.86185 18.5825C8.86185 18.5825 9.18422 18.8494 10.841 18.9561C13.3618 19.1172 17.2337 18.8664 17.3255 17.6735Z" fill="#DD4F37"/>
<defs>
<radialGradient id="paint0_radial_6_268" cx="0" cy="0" r="1" gradientUnits="userSpaceOnUse" gradientTransform="translate(17.5 1) rotate(116.565) scale(24.5967)">
<stop stop-color="#F4F4F4"/>
<stop offset="1" stop-color="#BBBBBB"/>
</radialGradient>
</defs>
</svg>

<svg xmlns="http://www.w3.org/2000/svg" width="24" height="24" fill="none"><rect width="22" height="22" x="1" y="1" fill="url(#a)" rx="6.6"/><path fill="#DD4F37" fill-rule="evenodd" d="M13.564 5c.586 2.311-2.07 3.01-3.028 4.449-.653.98.32 2.034 1.647 3.232-.517-1.17-2.272-2.193 0-3.989C15.019 6.455 13.564 5 13.564 5Zm1.753 2.86s-4.792 1.196-2.503 3.834c.675.778-.178 1.477-.178 1.477s1.715-.885.928-1.994c-.736-1.033-1.3-1.547 1.753-3.317Zm.849 4.711c-.168 0-.347.03-.53.094-.148.052-.225.173-.225.173s.093-.037.3-.08c.848-.177 2.063 1.135-.564 2.5-.012.032-.052.068-.052.068 3.123-.821 2.442-2.758 1.071-2.755Zm-5.628.133c-.206-.005-1.096.009-2.159.523-1.437.695 3.555 1.011 6.139.332.268-.184.64-.343.64-.343s-1.057.19-2.11.277c-1.29.109-2.672.13-3.366.037-1.644-.22.9-.824.9-.824l-.044-.002Zm-.548 1.59c-2.37.787 1.32 1.68 4.633.71-.352-.123-.575-.35-.575-.35-1.62.311-2.556.301-3.742.179-.916-.095-.316-.539-.316-.539Zm.335 1.533c-2.152.601 1.31 1.844 4.05.67a5.068 5.068 0 0 1-.77-.377c-1.222.231-1.79.25-2.899.123-.915-.105-.38-.416-.38-.416ZM8.83 16.843c-.967.03-2.857.899-1.128 1.18 5.588.905 10.186-.409 8.736-1.063 0 0 .396.327-.436.58-1.581.478-6.584.623-7.973.018-.5-.217.437-.518.732-.582.307-.066.482-.054.482-.054-.087-.061-.234-.085-.413-.08Zm8.496.83s-.177.453-2.084.812c-2.152.405-4.806.357-6.38.098 0 0 .322.266 1.979.373 2.52.161 6.393-.09 6.485-1.282Z" clip-rule="evenodd"/><defs><radialGradient id="a" cx="0" cy="0" r="1" gradientTransform="rotate(116.565 8.441 5.908) scale(24.5967)" gradientUnits="userSpaceOnUse"><stop stop-color="#F4F4F4"/><stop offset="1" stop-color="#BBB"/></radialGradient></defs></svg>
